static/img/services/bitbucket.svg

<svg width="156" height="30" viewBox="0 0 156 30" fill="none" xmlns="http://www.w3.org/2000/svg">
<path d="M1.21767 5.17308C1.11618 5.17178 1.01564 5.1927 0.923103 5.23438C0.830564 5.27606 0.748271 5.3375 0.682002 5.41437C0.615732 5.49124 0.567093 5.58169 0.5395 5.67936C0.511906 5.77703 0.506026 5.87956 0.522274 5.97974L3.47423 23.9001C3.51101 24.1194 3.62388 24.3187 3.79302 24.4631C3.96216 24.6074 4.17675 24.6875 4.3991 24.6894H18.5608C18.7275 24.6915 18.8894 24.6337 19.0171 24.5265C19.1447 24.4193 19.2296 24.2698 19.2562 24.1052L22.2151 5.9867C22.2314 5.88651 22.2255 5.78399 22.1979 5.68632C22.1703 5.58864 22.1217 5.4982 22.0554 5.42133C21.9891 5.34445 21.9068 5.28302 21.8143 5.24134C21.7218 5.19965 21.6212 5.17873 21.5197 5.18004L1.21767 5.17308ZM13.6479 18.1248H9.12779L7.9039 11.7341H14.7431L13.6479 18.1248Z" fill="white"/>
<path d="M21.2694 11.7341H14.7431L13.6479 18.1248H9.12781L3.79065 24.4633C3.95981 24.6096 4.17549 24.691 4.39912 24.6928H18.5643C18.731 24.695 18.8929 24.6372 19.0206 24.53C19.1482 24.4227 19.2331 24.2732 19.2597 24.1087L21.2694 11.7341Z" fill="url(#paint0_linear)"/>
<path d="M41.1577 4.58899C45.257 4.58899 47.2459 6.60911 47.2459 9.85313C47.2459 12.287 46.1437 13.7682 43.8802 14.321C46.8495 14.8113 48.3168 16.4316 48.3168 19.2792C48.3168 22.4919 46.1437 24.6964 41.6479 24.6964H33.3553V4.58899H41.1577ZM36.1091 7.22106V13.2154H40.7891C43.3899 13.2154 44.4608 12.0228 44.4608 10.0861C44.4608 8.14941 43.2995 7.21063 40.7891 7.21063L36.1091 7.22106ZM36.1091 15.6666V21.9252H41.7383C44.3704 21.9252 45.563 20.976 45.563 18.9559C45.563 16.814 44.4295 15.6527 41.6792 15.6527L36.1091 15.6666Z" fill="white"/>
<path d="M52.816 3.51805C53.0616 3.50048 53.3081 3.53591 53.5388 3.62196C53.7695 3.708 53.979 3.84264 54.1531 4.01675C54.3272 4.19086 54.4619 4.40037 54.5479 4.63108C54.634 4.86179 54.6694 5.1083 54.6518 5.3539C54.6518 5.84079 54.4584 6.30775 54.1141 6.65204C53.7698 6.99632 53.3029 7.18974 52.816 7.18974C52.3291 7.18974 51.8621 6.99632 51.5179 6.65204C51.1736 6.30775 50.9801 5.84079 50.9801 5.3539C50.9626 5.1083 50.998 4.86179 51.0841 4.63108C51.1701 4.40037 51.3047 4.19086 51.4789 4.01675C51.653 3.84264 51.8625 3.708 52.0932 3.62196C52.3239 3.53591 52.5704 3.50048 52.816 3.51805ZM51.4704 9.39067H54.1025V24.6894H51.4704V9.39067Z" fill="white"/>
<path d="M64.151 22.1234C64.7073 22.1068 65.2606 22.0346 65.8025 21.9078V24.446C65.226 24.6108 64.6289 24.6928 64.0293 24.6894C60.754 24.6894 59.1615 22.7632 59.1615 19.9155V11.8385H56.6824V9.40463H59.1615V6.15018H61.7171V9.3942H65.7852V11.8281H61.7171V19.8564C61.7171 21.202 62.5133 22.1234 64.151 22.1234Z" fill="white"/>
<path d="M76.6507 24.9954C74.4184 24.9954 72.7043 23.987 71.7829 21.9982V24.6894H69.1508V3H71.8003V12.1445C72.7808 10.1243 74.6166 9.08471 76.9705 9.08471C81.0386 9.08471 83.09 12.5408 83.09 17.04C83.0761 21.355 80.9343 24.9954 76.6507 24.9954ZM76.2508 11.5325C73.8865 11.5325 71.8003 13.0346 71.8003 16.4281V17.652C71.8003 21.049 73.7265 22.5476 75.9726 22.5476C78.942 22.5476 80.4718 20.59 80.4718 17.04C80.444 13.3683 78.9768 11.5325 76.2508 11.5325Z" fill="white"/>
<path d="M85.83 9.39067H88.462V18.6464C88.462 21.4002 89.5642 22.624 92.0711 22.624C94.505 22.624 96.2018 21.0038 96.2018 17.9127V9.39067H98.8338V24.6894H96.2018V22.1825C95.7331 23.051 95.034 23.7735 94.1814 24.2704C93.3287 24.7673 92.3555 25.0193 91.3688 24.9988C87.8501 24.9988 85.83 22.5649 85.83 18.3578V9.39067Z" fill="white"/>
<path d="M113.611 24.293C112.693 24.7832 111.285 24.9884 109.877 24.9884C104.432 24.9884 101.88 21.6853 101.88 16.9913C101.88 12.3704 104.418 9.0673 109.877 9.0673C111.135 9.03161 112.384 9.28996 113.524 9.82181V12.2557C112.437 11.7474 111.247 11.4998 110.047 11.5325C106.069 11.5325 104.449 14.0429 104.449 17.0087C104.449 19.9746 106.115 22.4711 110.124 22.4711C111.306 22.5023 112.485 22.3161 113.601 21.9217L113.611 24.293Z" fill="white"/>
<path d="M116.612 24.6894V3H119.244V16.5602L125.822 9.40112H129.25L122.057 16.9079L129.553 24.6894H125.972L119.24 17.5303V24.6894H116.612Z" fill="white"/>
<path d="M138.273 24.9953C132.55 24.9953 130.043 21.6922 130.043 16.9983C130.043 12.3774 132.613 9.07426 137.265 9.07426C141.976 9.07426 143.871 12.3496 143.871 16.9983V18.1909H132.703C133.072 20.7917 134.754 22.4745 138.363 22.4745C139.951 22.4731 141.525 22.193 143.016 21.647V24.0809C141.761 24.7519 139.834 24.9953 138.273 24.9953ZM132.675 15.9552H141.211C141.058 13.111 139.772 11.4873 137.143 11.4873C134.355 11.4734 132.95 13.2779 132.675 15.9413V15.9552Z" fill="white"/>
<path d="M153.05 22.1234C153.607 22.1068 154.16 22.0346 154.702 21.9078V24.446C154.125 24.6108 153.528 24.6928 152.929 24.6894C149.653 24.6894 148.061 22.7632 148.061 19.9155V11.8385H145.582V9.40463H148.061V6.15018H150.63V9.3942H154.698V11.8281H150.63V19.8564C150.634 21.202 151.423 22.1234 153.05 22.1234Z" fill="white"/>
<defs>
<linearGradient id="paint0_linear" x1="22.7784" y1="13.5213" x2="11.9928" y2="21.9425" gradientUnits="userSpaceOnUse">
<stop offset="0.18" stop-color="#D1D1E0"/>
<stop offset="1" stop-color="white"/>
</linearGradient>
</defs>
</svg>

<svg width="156" height="30" fill="none" xmlns="http://www.w3.org/2000/svg"><path d="M1.218 5.173a.696.696 0 0 0-.696.807L3.474 23.9a.946.946 0 0 0 .925.79h14.162a.696.696 0 0 0 .695-.585l2.96-18.118a.694.694 0 0 0-.696-.807L1.218 5.173Zm12.43 12.952h-4.52l-1.224-6.39h6.84l-1.096 6.39Z" fill="#fff"/><path d="M21.27 11.734h-6.527l-1.095 6.39h-4.52l-5.337 6.34c.169.146.384.227.608.229h14.165a.695.695 0 0 0 .696-.584l2.01-12.375Z" fill="url(#a)"/><path d="M41.158 4.589c4.099 0 6.088 2.02 6.088 5.264 0 2.434-1.102 3.915-3.366 4.468 2.97.49 4.437 2.11 4.437 4.958 0 3.213-2.173 5.417-6.67 5.417h-8.292V4.59h7.803Zm-5.049 2.632v5.994h4.68c2.6 0 3.672-1.192 3.672-3.129S43.3 7.211 40.789 7.211l-4.68.01Zm0 8.446v6.258h5.63c2.631 0 3.824-.949 3.824-2.97 0-2.141-1.134-3.302-3.884-3.302l-5.57.014ZM52.816 3.518a1.718 1.718 0 0 1 1.836 1.836 1.836 1.836 0 1 1-3.672 0 1.718 1.718 0 0 1 1.836-1.836ZM51.47 9.391h2.633v15.298H51.47V9.391ZM64.151 22.123a8.34 8.34 0 0 0 1.651-.215v2.538a6.321 6.321 0 0 1-1.773.243c-3.275 0-4.867-1.926-4.867-4.773v-8.078h-2.48V9.405h2.48V6.15h2.555v3.244h4.068v2.434h-4.068v8.028c0 1.346.796 2.267 2.434 2.267ZM76.65 24.995c-2.232 0-3.946-1.008-4.867-2.997v2.691H69.15V3h2.65v9.145c.98-2.02 2.816-3.06 5.17-3.06 4.068 0 6.119 3.456 6.119 7.955-.014 4.315-2.156 7.955-6.44 7.955Zm-.4-13.463c-2.364 0-4.45 1.503-4.45 4.896v1.224c0 3.397 1.927 4.896 4.173 4.896 2.969 0 4.499-1.958 4.499-5.508-.028-3.672-1.495-5.507-4.221-5.507ZM85.83 9.39h2.632v9.256c0 2.754 1.102 3.978 3.61 3.978 2.433 0 4.13-1.62 4.13-4.711V9.39h2.632v15.298h-2.632v-2.506a5.367 5.367 0 0 1-4.833 2.816c-3.519 0-5.539-2.434-5.539-6.641V9.39ZM113.611 24.293c-.918.49-2.326.695-3.734.695-5.445 0-7.997-3.303-7.997-7.997 0-4.62 2.538-7.924 7.997-7.924a8.084 8.084 0 0 1 3.647.755v2.434a7.71 7.71 0 0 0-3.477-.723c-3.978 0-5.598 2.51-5.598 5.476s1.666 5.462 5.675 5.462a9.671 9.671 0 0 0 3.477-.55l.01 2.372ZM116.612 24.69V3h2.632v13.56l6.578-7.159h3.428l-7.193 7.507 7.496 7.781h-3.581l-6.732-7.159v7.16h-2.628ZM138.273 24.995c-5.723 0-8.23-3.303-8.23-7.997 0-4.62 2.57-7.924 7.222-7.924 4.711 0 6.606 3.276 6.606 7.924v1.193h-11.168c.369 2.6 2.051 4.284 5.66 4.284a13.563 13.563 0 0 0 4.653-.828v2.434c-1.255.67-3.182.914-4.743.914Zm-5.598-9.04h8.536c-.153-2.844-1.439-4.468-4.068-4.468-2.788-.014-4.193 1.79-4.468 4.454v.014ZM153.05 22.123a8.34 8.34 0 0 0 1.652-.215v2.538a6.325 6.325 0 0 1-1.773.243c-3.276 0-4.868-1.926-4.868-4.773v-8.078h-2.479V9.405h2.479V6.15h2.569v3.244h4.068v2.434h-4.068v8.028c.004 1.346.793 2.267 2.42 2.267Z" fill="#fff"/><defs><linearGradient id="a" x1="22.778" y1="13.521" x2="11.993" y2="21.942" gradientUnits="userSpaceOnUse"><stop offset=".18" stop-color="#D1D1E0"/><stop offset="1" stop-color="#fff"/></linearGradient></defs></svg>
